usr/share/icons/biglinux-icons-material-dark/symbolic/status/transmission-tray-icon-symbolic.svg

<svg id="svg8" version="1.1" viewBox="0 0 22 22" xmlns="http://www.w3.org/2000/svg">
    <style id="current-color-scheme" type="text/css">
        .ColorScheme-Text {
            color:#232629;
        }
    </style>
    <g class="ColorScheme-Text" fill="currentColor">
        <path id="path881" d="m5.0982543 8.9973146-2.220432 10.002685h16.244111l-2.220432-10.002685h-2.900036v1.0037834h2.095446l1.556451 6.997193h-13.306969l1.5564508-6.997193h2.0973999v-1.0037834z"/>
        <path id="rect822" d="m10 3v0.9998777h-2.9996339c-0.5539322 0-0.9998778 0.4459457-0.9998778 0.9998778 0 0.5539326 0.4459456 0.9998783 0.9998778 0.9998783h2.9996339v6.0031732h-2.7067007l3.7046257 3.704626 3.706579-3.704626h-2.704748v-6.0031732h2.999634c0.553933 0 0.999878-0.4459457 0.999878-0.9998783 0-0.5539321-0.445945-0.9998778-0.999878-0.9998778h-2.999634v-0.9998777z"/>
    </g>
</svg>

<svg xmlns="http://www.w3.org/2000/svg" id="svg8" version="1.1" viewBox="0 0 22 22">
<style id="current-color-scheme" type="text/css">
.ColorScheme-Contrast{color:#232629}
</style>
<g fill="currentColor" class="ColorScheme-Contrast">
<path id="path881" d="M5.098 8.997 2.878 19h16.244l-2.22-10.003h-2.9v1.004h2.095l1.556 6.997H4.346l1.557-6.997H8V8.997z"/>
<path id="rect822" d="M10 3v1H7c-.554 0-1 .446-1 1s.446 1 1 1h3v6.003H7.293l3.705 3.704 3.707-3.704H12V6h3c.553 0 1-.446 1-1s-.447-1-1-1h-3V3z"/>
</g>
</svg>
